symbols/web/share_location/materialsymbolssharp/share_location_gradN25_40px.svg

<svg xmlns="http://www.w3.org/2000/svg" height="40" width="40"><path d="M21.667 36.292v-2.625q1.833-.25 3.562-.959 1.729-.708 3.188-1.875l1.833 1.917q-1.875 1.542-4.021 2.417-2.146.875-4.562 1.125ZM32.75 30.25l-1.917-1.792q1.125-1.458 1.834-3.146.708-1.687 1-3.604h2.666q-.333 2.459-1.25 4.625-.916 2.167-2.333 3.917Zm.917-11.958q-.292-1.917-1-3.604-.709-1.688-1.834-3.146l1.917-1.834q1.542 2 2.396 4.063.854 2.062 1.187 4.521Zm-15.417 18Q12 35.625 7.812 30.958 3.625 26.292 3.625 20q0-6.333 4.187-10.979Q12 4.375 18.25 3.667v2.625q-5.167.75-8.562 4.646Q6.292 14.833 6.292 20t3.396 9.062q3.395 3.896 8.562 4.605ZM28.5 9.125q-1.583-1.083-3.292-1.812-1.708-.73-3.458-1.021V3.667q2.292.291 4.458 1.187 2.167.896 4.042 2.354ZM20 29.167q-3.667-3.084-5.438-5.729-1.77-2.646-1.77-4.896 0-3.417 2.187-5.417 2.188-2 5.021-2 2.833 0 5.021 2 2.187 2 2.187 5.417 0 2.25-1.77 4.896-1.771 2.645-5.438 5.729Zm0-8.959q.833 0 1.396-.583.562-.583.562-1.375 0-.75-.562-1.354-.563-.604-1.396-.604-.792 0-1.354.604-.563.604-.563 1.354 0 .792.563 1.375.562.583 1.354.583Z"/></svg>

<svg xmlns="http://www.w3.org/2000/svg" height="40" width="40"><path d="M28.417 30.833 30.25 32.75Q28.375 34.292 26.229 35.188Q24.083 36.083 21.667 36.292V33.667Q23.5 33.417 25.229 32.708Q26.958 32 28.417 30.833ZM36.333 21.708Q36 24.167 35.083 26.333Q34.167 28.5 32.75 30.25L30.833 28.458Q31.958 27 32.667 25.312Q33.375 23.625 33.667 21.708ZM32.75 9.708Q34.292 11.708 35.146 13.771Q36 15.833 36.333 18.292H33.667Q33.375 16.375 32.667 14.688Q31.958 13 30.833 11.542ZM18.25 3.667V6.292Q13.083 7.042 9.688 10.938Q6.292 14.833 6.292 20Q6.292 25.167 9.688 29.062Q13.083 32.958 18.25 33.667V36.292Q12 35.625 7.812 30.958Q3.625 26.292 3.625 20Q3.625 13.667 7.812 9.021Q12 4.375 18.25 3.667ZM21.75 3.667Q24.042 3.958 26.208 4.854Q28.375 5.75 30.25 7.208L28.5 9.125Q26.917 8.042 25.208 7.313Q23.5 6.583 21.75 6.292ZM20 29.583Q19.667 29.583 19.417 29.417Q19.167 29.25 19.083 28.917Q18.417 26.958 17.438 25.583Q16.458 24.208 15.521 22.979Q14.583 21.75 13.917 20.396Q13.25 19.042 13.25 17.125Q13.25 14.333 15.229 12.354Q17.208 10.375 20 10.375Q22.792 10.375 24.771 12.354Q26.75 14.333 26.75 17.125Q26.75 19.042 26.083 20.396Q25.417 21.75 24.479 22.979Q23.542 24.208 22.562 25.583Q21.583 26.958 20.958 28.917Q20.833 29.25 20.583 29.417Q20.333 29.583 20 29.583ZM20 19.5Q20.958 19.5 21.646 18.792Q22.333 18.083 22.333 17.125Q22.333 16.167 21.646 15.479Q20.958 14.792 20 14.792Q19.042 14.792 18.354 15.479Q17.667 16.167 17.667 17.125Q17.667 18.083 18.354 18.792Q19.042 19.5 20 19.5Z"/></svg>
